src/lib/assets/logo.svg

<svg width="82" height="82" viewBox="0 0 82 82" fill="none" xmlns="http://www.w3.org/2000/svg">
<path d="M69.8414 12.013C62.1104 4.26399 51.8405 0 40.9154 0C18.353 0 0 18.3926 0 40.9999C0 63.6073 18.353 82 40.9154 82C51.8405 82 62.1185 77.736 69.8414 69.987C77.5724 62.2378 81.8227 51.9469 81.8227 40.9999C81.8227 30.0531 77.5724 19.7538 69.8414 12.013ZM40.9154 79.1628C19.9172 79.1628 2.83361 62.0412 2.83361 40.9999C2.83361 19.9588 19.9172 2.8372 40.9154 2.8372C61.9136 2.8372 78.9972 19.9588 78.9972 40.9999C78.9972 62.0412 61.9136 79.1628 40.9154 79.1628Z" fill="white"/>
<path d="M54.3469 41.9676C51.7262 39.6225 48.2946 38.0564 44.9695 36.5394L44.9452 36.531C39.0813 33.8497 34.012 31.5292 34.3722 26.0433C34.5278 23.9523 36.0428 22.6895 37.2877 22.0089C38.6881 21.2381 40.5471 20.7789 42.267 20.7789C42.4718 20.7789 42.6766 20.7871 42.873 20.7953C47.8769 21.1315 51.8243 23.2553 55.6817 27.6669L55.9111 27.9375L56.1813 27.7079L57.6882 26.3959L57.9584 26.1581L57.7209 25.8875C53.4215 20.9511 48.7532 18.4665 43.0452 18.0811C42.7993 18.0565 42.5374 18.0483 42.2508 18.0483C42.0786 18.0483 41.8903 18.0483 41.6939 18.0565H41.448C37.7054 18.0565 33.6024 19.2865 30.4821 21.3529C26.756 23.8211 24.6676 27.2159 24.6103 30.914C24.4628 39.9096 31.8088 42.9353 38.2869 45.6167L38.3034 45.6248L38.3688 45.6494C44.1016 48.0275 49.048 50.0774 48.9415 55.5714C48.8926 59.1958 43.7166 61.1968 40.1624 61.1968H40.0148H39.6628V61.2049C34.3641 61.0491 29.6304 58.7614 25.5931 54.4235L25.3472 54.161L25.0853 54.3988L23.6192 55.7599L23.3571 56.0061L23.603 56.2686C28.1892 61.213 33.848 63.8698 39.974 63.9436H40.2523C44.2081 63.9436 48.5076 62.8777 51.7508 61.0818C55.8128 58.8596 58.1795 55.6206 58.4253 51.9634C58.7036 47.9456 57.3689 44.6736 54.3469 41.9676ZM35.3303 34.1448C37.6646 36.1458 40.8257 37.5807 43.8803 38.9665L43.9376 38.9911C47.1728 40.4834 50.2355 41.8937 52.4549 43.8536C54.9119 46.0185 55.9519 48.5278 55.7309 51.7502C55.5261 54.9402 53.1594 57.0721 51.0053 58.3596C51.423 57.5066 51.6524 56.58 51.677 55.596C51.7262 52.2832 50.4568 49.6345 47.7869 47.4862C45.4529 45.6086 42.3572 44.3376 39.3599 43.0993C33.1274 40.5326 27.2391 38.1056 27.3456 30.9386C27.3783 28.1835 29.0327 25.5759 32.0055 23.5997C32.1039 23.5341 32.2019 23.4685 32.3084 23.4029C31.9563 24.1737 31.7599 24.9773 31.7107 25.8219C31.4732 29.143 32.6607 31.8652 35.3303 34.1448Z" fill="white"/>
</svg>

<svg xmlns="http://www.w3.org/2000/svg" width="82" height="82" fill="none"><path fill="#fff" d="M69.841 12.013C62.111 4.264 51.841 0 40.915 0 18.353 0 0 18.393 0 41s18.353 41 40.915 41c10.925 0 21.203-4.264 28.926-12.013 7.731-7.75 11.982-18.04 11.982-28.987s-4.25-21.246-11.982-28.987Zm-28.926 67.15C19.917 79.163 2.834 62.04 2.834 41c0-21.041 17.083-38.163 38.081-38.163C61.914 2.837 78.997 19.96 78.997 41c0 21.041-17.083 38.163-38.082 38.163Z"/><path fill="#fff" d="M54.347 41.968c-2.62-2.346-6.052-3.912-9.378-5.429l-.024-.008c-5.864-2.681-10.933-5.002-10.573-10.488.156-2.09 1.67-3.354 2.916-4.034 1.4-.77 3.26-1.23 4.979-1.23.205 0 .41.008.606.016 5.004.336 8.951 2.46 12.809 6.872l.23.27.27-.23 1.506-1.311.27-.238-.237-.27c-4.3-4.937-8.968-7.422-14.676-7.807a8.019 8.019 0 0 0-.794-.033c-.172 0-.36 0-.557.009h-.246c-3.743 0-7.846 1.23-10.966 3.296-3.726 2.468-5.814 5.863-5.872 9.561-.147 8.996 7.199 12.021 13.677 14.703l.016.008.066.024c5.733 2.379 10.679 4.428 10.572 9.922-.048 3.625-5.224 5.626-8.779 5.626h-.499v.008c-5.299-.156-10.033-2.444-14.07-6.782l-.246-.262-.262.238-1.466 1.36-.262.247.246.263c4.586 4.944 10.245 7.6 16.371 7.675h.278c3.956 0 8.256-1.066 11.499-2.862 4.062-2.222 6.428-5.461 6.674-9.119.279-4.017-1.056-7.29-4.078-9.995ZM35.33 34.145c2.335 2 5.496 3.436 8.55 4.822l.058.024c3.235 1.492 6.297 2.903 8.517 4.863 2.457 2.165 3.497 4.674 3.276 7.896-.205 3.19-2.572 5.322-4.726 6.61a6.61 6.61 0 0 0 .672-2.764c.05-3.313-1.22-5.961-3.89-8.11-2.334-1.877-5.43-3.148-8.427-4.387-6.233-2.566-12.12-4.993-12.014-12.16.032-2.756 1.687-5.363 4.66-7.34.098-.065.196-.13.302-.196a6.697 6.697 0 0 0-.597 2.419c-.238 3.321.95 6.043 3.62 8.323Z"/></svg>
